app/assets/svg/icons/medal.svg

<svg width="120" height="121" viewBox="0 0 120 121" fill="none" xmlns="http://www.w3.org/2000/svg">
<g id="Frame 48104809" clip-path="url(#clip0_616_2066)">
<!-- <rect width="120" height="120" transform="translate(0 0.499023)" fill="white"/> -->
<path id="Vector" opacity="0.4" d="M20.0002 0.499023H40V48.499L21.7722 37.0645C20.6329 36.4362 20 35.1797 20 33.9231L20.0002 0.499023Z" fill="#1F2348"/>
<path id="Vector_2" opacity="0.4" d="M99.9998 0.499023H80V48.499L98.2278 37.0645C99.3671 36.4362 100 35.1797 100 33.9231L99.9998 0.499023Z" fill="#1F2348"/>
<path id="Vector_3" opacity="0.4" d="M70 52.499V0.499023H50V52.499H70Z" fill="#1F2348"/>
<path id="Fill 1.1" fill-rule="evenodd" clip-rule="evenodd" d="M63.228 107.924V113.665H57.9V108.198C54.6212 107.788 50.796 106.421 48.337 104.097L51.7523 98.7672C54.6212 100.817 56.9437 101.911 59.5394 101.911C62.6815 101.911 64.0477 100.681 64.0477 98.0838C64.0477 92.6168 49.5665 92.7535 49.5665 82.9129C49.5665 77.7193 52.7086 74.0291 57.9 72.9357V67.4688H63.228V72.9357C66.6433 73.3457 69.239 75.1225 71.2882 77.3093L67.3264 81.8195C65.2772 80.0428 63.6378 79.0861 61.3154 79.0861C58.7197 79.0861 57.3535 80.1795 57.3535 82.6396C57.3535 87.6965 71.6981 87.2865 71.6981 97.6738C71.6981 102.731 68.8292 106.831 63.228 107.924ZM79.0748 63.3692C78.2551 61.7291 75.9327 60.499 74.1567 60.499H45.7408C43.9648 60.499 41.779 61.7291 40.8227 63.3692L26.6148 87.6972C25.7951 89.2006 25.7951 91.7974 26.6148 93.3008L40.8227 117.629C41.779 119.269 43.9648 120.499 45.7408 120.499H74.1567C76.0693 120.499 78.2551 119.269 79.0748 117.629L93.2828 93.3008C94.2391 91.7974 94.2391 89.2006 93.2828 87.6972L79.0748 63.3692Z" fill="url(#paint0_radial_616_2066)"/>
</g>
<defs>
<radialGradient id="paint0_radial_616_2066" cx="0" cy="0" r="1" gradientUnits="userSpaceOnUse" gradientTransform="translate(28.355 42.6691) rotate(34.9489) scale(127.279 114.073)">
<stop stop-color="#1F2348" stop-opacity="0.6"/>
<stop offset="1" stop-color="#1F2348" stop-opacity="0.2"/>
</radialGradient>
<clipPath id="clip0_616_2066">
<rect width="120" height="120" fill="white" transform="translate(0 0.499023)"/>
</clipPath>
</defs>
</svg>

<svg width="120" height="121" viewBox="0 0 120 121" fill="none" xmlns="http://www.w3.org/2000/svg">
  <g clip-path="url(#a)">
    <path opacity=".4" d="M20 .5h20v48L21.8 37.1a3.6 3.6 0 0 1-1.8-3.2V.5ZM100 .5H80v48l18.2-11.4a3.6 3.6 0 0 0 1.8-3.2V.5ZM70 52.5V.5H50v52h20Z" fill="#1F2348"/>
    <path fill-rule="evenodd" clip-rule="evenodd" d="M63.2 108v5.7H58v-5.5c-3.3-.4-7.1-1.8-9.6-4.1l3.5-5.3c2.8 2 5.1 3.1 7.7 3.1 3.2 0 4.5-1.2 4.5-3.8 0-5.5-14.4-5.3-14.4-15.2 0-5.2 3.1-8.9 8.3-10v-5.4h5.3v5.4c3.4.4 6 2.2 8 4.4l-3.9 4.5c-2-1.8-3.7-2.7-6-2.7-2.6 0-4 1-4 3.5 0 5.1 14.4 4.7 14.4 15 0 5.1-2.9 9.2-8.5 10.3Zm15.9-44.6c-.8-1.7-3.2-2.9-5-2.9H45.8c-1.7 0-4 1.2-4.9 2.9L26.6 87.7a6.7 6.7 0 0 0 0 5.6l14.2 24.3c1 1.7 3.2 2.9 5 2.9h28.4c1.9 0 4-1.2 4.9-2.9l14.2-24.3c1-1.5 1-4.1 0-5.6L79 63.4Z" fill="url(#b)"/>
  </g>
  <defs>
    <radialGradient id="b" cx="0" cy="0" r="1" gradientUnits="userSpaceOnUse" gradientTransform="matrix(104 73 -65 94 28.4 42.7)">
      <stop stop-color="#1F2348" stop-opacity=".6"/>
      <stop offset="1" stop-color="#1F2348" stop-opacity=".2"/>
    </radialGradient>
    <clipPath id="a">
      <path fill="#fff" d="M0 .5h120v120H0z"/>
    </clipPath>
  </defs>
</svg>
